X:1
T:Auchindoun Castle
T:Auchindoun Castle
T:Alexander Walker
C:Alexander Walker
L:1/8
M:2/2
K:Bmin
V:1 treble 
V:1
 B2 Bc BAFB | AFDF EDB,A | (B2 B)d BAFD | EDFD B,/B,/B,B, :| a | bafb afeg | fedf ecAc | %7
 BAFB AFDF | FDFD B,/B,/B, B,>a | bafb afeg | fedf ecAc | BFBc{e} dcde | fdec B/B/BB || %13

